X:132
T:Sonata in E minor Op.5 No.8 - Preludio
C:Corelli, A.
M:4/4
L:1/8
Q:1/4=66
K:Emin
|:B2|e4 de f#2|g2 fe d2 c2|B4 cd e2|f#4 e2 B2|
c4 de f2|e2 dc B2 A2|G4 AB c2|B4 B2:|

